X:0728
T:A Quick Step.
M:C|
L:1/8
Q:1/2=84
I: :: ||
Z:Jack Campin * www.campin.me.uk * 2009
K:G
GABc dBGB|ecAc dBA<G|GABc dBGB|cAGF G2G2:|
GggG FffF|EeeE DddD |EeFf GgAa|agfe d3 d |
ecce egge|dBBd dggd |eccA dBBG|cAAF G2G2|]
<end>
<start>
